symbols/web/wb_iridescent/materialsymbolsoutlined/wb_iridescent_wght700grad200fill1_40px.svg

<svg xmlns="http://www.w3.org/2000/svg" height="40" width="40"><path d="M7.542 25.792V14.208H32.5v11.584ZM18.125 6.958V1.167h3.833v5.791Zm14.708 4.75L30.083 9l3.667-3.625 2.708 2.708ZM18.125 38.833V33h3.833v5.833Zm15.625-4.25-3.667-3.625 2.75-2.708 3.625 3.625ZM7.208 11.708 3.542 8.083l2.75-2.708L9.917 9Zm-.916 22.875-2.75-2.708 3.666-3.625 2.709 2.708Z"/></svg>

<svg xmlns="http://www.w3.org/2000/svg" height="40" width="40"><path d="M7.542 25.792V14.208H32.5V25.792ZM18.125 6.958V1.167H21.958V6.958ZM32.833 11.708 30.083 9 33.75 5.375 36.458 8.083ZM18.125 38.833V33H21.958V38.833ZM33.75 34.583 30.083 30.958 32.833 28.25 36.458 31.875ZM7.208 11.708 3.542 8.083 6.292 5.375 9.917 9ZM6.292 34.583 3.542 31.875 7.208 28.25 9.917 30.958Z"/></svg>
